other/FirefoxFocus.svg

<?xml version="1.0" encoding="UTF-8" standalone="no"?>
<svg
   xmlns:dc="http://purl.org/dc/elements/1.1/"
   xmlns:cc="http://creativecommons.org/ns#"
   xmlns:rdf="http://www.w3.org/1999/02/22-rdf-syntax-ns#"
   xmlns:svg="http://www.w3.org/2000/svg"
   xmlns="http://www.w3.org/2000/svg"
   xmlns:sodipodi="http://sodipodi.sourceforge.net/DTD/sodipodi-0.dtd"
   xmlns:inkscape="http://www.inkscape.org/namespaces/inkscape"
   width="48"
   height="48"
   viewBox="0 0 48 48"
   version="1.1"
   id="svg4"
   sodipodi:docname="FirefoxFocus.svg"
   inkscape:version="0.92.3 (2405546, 2018-03-11)">
  <metadata
     id="metadata10">
    <rdf:RDF>
      <cc:Work
         rdf:about="">
        <dc:format>image/svg+xml</dc:format>
        <dc:type
           rdf:resource="http://purl.org/dc/dcmitype/StillImage" />
        <dc:title></dc:title>
      </cc:Work>
    </rdf:RDF>
  </metadata>
  <defs
     id="defs8" />
  <sodipodi:namedview
     pagecolor="#9d9d9d"
     bordercolor="#666666"
     borderopacity="1"
     objecttolerance="10"
     gridtolerance="10"
     guidetolerance="10"
     inkscape:pageopacity="0"
     inkscape:pageshadow="2"
     inkscape:window-width="1920"
     inkscape:window-height="1046"
     id="namedview6"
     showgrid="false"
     inkscape:zoom="9.8333333"
     inkscape:cx="37.055911"
     inkscape:cy="31.45059"
     inkscape:window-x="0"
     inkscape:window-y="0"
     inkscape:window-maximized="1"
     inkscape:current-layer="svg4" />
  <path
     style="fill:#ffffff"
     d="M 24 2 A 22 22 0 0 0 2 24 A 22 22 0 0 0 24 46 A 22 22 0 0 0 46 24 A 22 22 0 0 0 24 2 z M 30.095703 6.3671875 C 30.352023 7.1075425 30.984284 7.9267183 32.490234 9.4726562 C 33.698094 10.712602 33.913152 10.885407 33.982422 10.669922 C 34.026922 10.531427 34.180009 10.163176 34.324219 9.8515625 L 34.587891 9.2851562 L 34.693359 9.6757812 C 34.751559 9.8907073 35.231839 10.74067 35.761719 11.564453 C 38.695169 16.124933 39.951948 18.703573 40.335938 20.951172 C 40.410938 21.390375 40.504689 21.889129 40.542969 22.060547 L 40.611328 22.373047 L 40.839844 22.072266 L 41.066406 21.771484 L 41.166016 22.074219 C 41.220716 22.241547 41.264672 23.087534 41.263672 23.953125 C 41.260672 26.364456 40.731989 28.466191 39.605469 30.554688 C 39.213849 31.280711 39.10402 31.635169 39.0625 32.287109 C 38.93514 34.287244 37.333003 36.137484 34.314453 37.775391 C 33.719823 38.098046 33.280887 38.456098 32.929688 38.900391 C 32.326138 39.663938 31.113691 40.428452 29.800781 40.875 C 28.055421 41.468637 25.177202 41.76864 23.070312 41.576172 C 19.060382 41.209855 15.331126 39.508923 12.384766 36.705078 C 9.2603858 33.731822 7.4659906 29.943646 7.1503906 25.652344 L 7.0585938 24.394531 L 6.9042969 24.960938 L 6.75 25.527344 L 6.7363281 24.824219 C 6.7229281 24.061367 7.0917237 21.874886 7.4023438 20.875 C 7.5089037 20.531995 7.5832563 20.237553 7.5664062 20.220703 C 7.5495063 20.203853 7.4023012 20.442779 7.2382812 20.751953 C 7.0742712 21.061127 6.9184881 21.291532 6.8925781 21.265625 C 6.8192781 21.192365 7.5840306 19.08251 8.0566406 18.054688 C 8.2903606 17.546394 8.7346588 16.777766 9.0429688 16.345703 C 9.5357388 15.655144 9.6189675 15.437065 9.7421875 14.537109 C 9.8192875 13.974032 9.9714183 13.213897 10.080078 12.847656 C 10.315008 12.055808 10.839388 10.984375 10.992188 10.984375 C 11.051887 10.984375 11.168743 10.820043 11.251953 10.619141 C 11.335153 10.418239 11.531763 10.132514 11.689453 9.984375 L 11.976562 9.7148438 L 12.0625 10.4375 C 12.1497 11.179637 12.616012 12.106315 13.232422 12.763672 C 13.530542 13.081596 13.585936 13.094248 14.572266 13.035156 C 15.337636 12.989306 15.850862 13.035251 16.576172 13.216797 C 17.521502 13.453413 17.557246 13.45426 17.759766 13.230469 C 17.874676 13.103497 18.028249 13 18.099609 13 C 18.171009 13 18.345331 12.890667 18.488281 12.757812 C 18.879291 12.394438 20.524932 11.864976 21.257812 11.867188 C 22.213902 11.870088 22.294701 11.995009 21.675781 12.501953 C 20.865501 13.165624 20.293936 13.823052 19.916016 14.525391 L 19.574219 15.162109 L 19.828125 15.660156 C 20.191725 16.372879 20.634029 16.587999 22.099609 16.765625 C 23.693249 16.958771 23.974609 17.07799 23.974609 17.560547 C 23.974609 18.415582 23.459614 18.929989 21.839844 19.691406 C 20.149414 20.486041 20.070509 20.557778 20.068359 21.359375 C 20.066359 22.213942 19.955798 22.599843 19.736328 22.515625 C 19.597608 22.462395 19.589852 22.50016 19.695312 22.697266 C 19.868102 23.02012 19.79933 23.011455 19.25 22.638672 C 18.77399 22.315637 18.203865 22.288324 17.859375 22.574219 C 17.587155 22.800141 17.383143 23.623082 17.476562 24.121094 C 17.579313 24.668766 18.401442 25.604221 19.351562 26.257812 C 20.330793 26.93143 21.011431 26.987295 22.775391 26.537109 C 24.331451 26.13998 24.933583 26.171572 25.908203 26.699219 C 26.544003 27.043431 27.121094 27.669163 27.121094 28.015625 C 27.121094 28.419509 26.73601 28.642399 26.1875 28.554688 C 25.72757 28.481137 25.512141 28.55441 24.113281 29.265625 L 22.552734 30.058594 L 21.029297 30.058594 C 20.190737 30.058594 19.27699 30.013051 19 29.957031 L 18.496094 29.855469 L 19.416016 30.740234 C 20.996016 32.259163 22.668529 32.850054 25.042969 32.726562 C 28.414169 32.551231 31.093978 30.454226 32.236328 27.099609 C 32.562738 26.14106 32.567761 23.577513 32.244141 22.525391 C 31.780411 21.01541 31.464178 20.52437 30.048828 19.097656 C 28.622508 17.6599 27.972208 16.645904 27.423828 15.013672 C 27.101658 14.054756 27.104447 11.748324 27.429688 10.607422 C 27.713458 9.6107356 28.705513 7.6242456 29.414062 6.6347656 C 29.476662 6.3988866 29.866943 6.4522245 30.095703 6.3671875 z "
     id="circle2" />
</svg>

<svg width="48" height="48" version="1.1" viewBox="0 0 48 48" xmlns="http://www.w3.org/2000/svg">
 <path d="m24 2a22 22 0 0 0-22 22 22 22 0 0 0 22 22 22 22 0 0 0 22-22 22 22 0 0 0-22-22zm6.0957 4.3672c0.25632 0.74036 0.88858 1.5595 2.3945 3.1055 1.2079 1.2399 1.4229 1.4128 1.4922 1.1973 0.0445-0.1385 0.19759-0.50675 0.3418-0.81836l0.26367-0.56641 0.10547 0.39062c0.0582 0.21493 0.53848 1.0649 1.0684 1.8887 2.9334 4.5605 4.1902 7.1391 4.5742 9.3867 0.075 0.4392 0.16875 0.93796 0.20703 1.1094l0.068359 0.3125 0.22852-0.30078 0.22656-0.30078 0.09961 0.30274c0.0547 0.16733 0.098656 1.0133 0.097656 1.8789-3e-3 2.4113-0.53168 4.5131-1.6582 6.6016-0.39162 0.72602-0.50145 1.0805-0.54297 1.7324-0.12736 2.0001-1.7295 3.8504-4.748 5.4883-0.59463 0.32266-1.0336 0.68071-1.3848 1.125-0.60355 0.76355-1.816 1.5281-3.1289 1.9746-1.7454 0.59364-4.6236 0.89364-6.7305 0.70117-4.0099-0.36632-7.7392-2.0672-10.686-4.8711-3.1244-2.9733-4.9188-6.7614-5.2344-11.053l-0.091797-1.2578-0.1543 0.56641-0.1543 0.56641-0.013672-0.70312c-0.0134-0.76285 0.3554-2.9493 0.66602-3.9492 0.10656-0.343 0.18091-0.63745 0.16406-0.6543-0.0169-0.01685-0.1641 0.22208-0.32812 0.53125-0.16401 0.30917-0.31979 0.53958-0.3457 0.51367-0.0733-0.07326 0.69145-2.1831 1.1641-3.2109 0.23372-0.50829 0.67802-1.2769 0.98633-1.709 0.49277-0.69056 0.576-0.90864 0.69922-1.8086 0.0771-0.56308 0.22923-1.3232 0.33789-1.6895 0.23493-0.79185 0.75931-1.8633 0.91211-1.8633 0.059699 0 0.17656-0.16433 0.25976-0.36523 0.0832-0.2009 0.27981-0.48663 0.4375-0.63477l0.28711-0.26953 0.085938 0.72266c0.0872 0.74214 0.55351 1.6688 1.1699 2.3262 0.29812 0.31792 0.35351 0.33058 1.3398 0.27148 0.76537-0.04585 1.2786 9.5e-5 2.0039 0.18164 0.94533 0.23662 0.98107 0.23746 1.1836 0.013672 0.11491-0.12697 0.26848-0.23047 0.33984-0.23047 0.0714 0 0.24572-0.10933 0.38867-0.24219 0.39101-0.36337 2.0367-0.89284 2.7695-0.89062 0.95609 0.0029 1.0369 0.12782 0.41797 0.63476-0.81028 0.66367-1.3818 1.3211-1.7598 2.0234l-0.3418 0.63672 0.25391 0.49805c0.3636 0.71272 0.8059 0.92784 2.2715 1.1055 1.5936 0.19315 1.875 0.31236 1.875 0.79492 0 0.85504-0.515 1.3694-2.1348 2.1309-1.6904 0.79464-1.7693 0.86637-1.7715 1.668-2e-3 0.85457-0.11256 1.2405-0.33203 1.1562-0.13872-0.05323-0.14648-0.015465-0.041016 0.18164 0.17279 0.32285 0.10402 0.31419-0.44531-0.058594-0.47601-0.32304-1.0461-0.35035-1.3906-0.064453-0.27222 0.22592-0.47623 1.0489-0.38281 1.5469 0.10275 0.54767 0.92488 1.4831 1.875 2.1367 0.97923 0.67362 1.6599 0.72948 3.4238 0.2793 1.5561-0.39713 2.1582-0.36554 3.1328 0.16211 0.6358 0.34421 1.2129 0.96994 1.2129 1.3164 0 0.40388-0.38508 0.62677-0.93359 0.53906-0.45993-0.073551-0.67536-2.78e-4 -2.0742 0.71094l-1.5605 0.79297h-1.5234c-0.83856 0-1.7523-0.045543-2.0293-0.10156l-0.50391-0.10156 0.91992 0.88476c1.58 1.5189 3.2525 2.1098 5.627 1.9863 3.3712-0.17533 6.051-2.2723 7.1934-5.627 0.32641-0.95855 0.33143-3.5221 0.007813-4.5742-0.46373-1.51-0.77996-2.001-2.1953-3.4277-1.4263-1.4378-2.0766-2.4518-2.625-4.084-0.32217-0.95892-0.31938-3.2653 0.00586-4.4062 0.28377-0.99669 1.2758-2.9832 1.9844-3.9727 0.0626-0.23588 0.45288-0.18254 0.68164-0.26758z" fill="#fff"/>
</svg>
